!!!COM: Haydn, Franz Joseph
!!!OTL: String Quartet in G Major
!!!OPS: Opus 17
!!!ONM: No. 5
!!!OMD: Adagio
!!!OMV: 3
!!!SCT: H III:29
!!!SCA: Thematisch-bibliographisches Werkevererzeichnis (A. van Hoboken)
!!!YOR: Trautwein Edition
!!!ENC: Frances Bennion
!!!CDT: 1732/3/31/-1809/5/31/
!!!CNT: Oesterreich
!!!YEC: Copyright (c) 1994, 2000 Center for Computer Assisted Research in the Humanities
!!!YEM: Rights to all derivative editions reserved.
!!!YEM: Refer to licensing agreement for further details.
!!!YEN: United States of America
**kern	**kern	**kern	**kern
*k[b-e-]	*k[b-e-]	*k[b-e-]	*k[b-e-]
*g:	*g:	*g:	*g:
*clefF4	*clefC3	*clefG	*clefG
*M3/4	*M3/4	*M3/4	*M3/4
*MM70	*MM70	*MM70	*MM70
4G	4g	4b-	8.dd
.	.	.	32ee-
.	.	.	32dd
4r	4r	4r	4gg
4G	4B-	4B-	4d
=2	=2	=2	=2
4F#	4A	4c	4e-
4G	4B-	4B-	4d
4r	4r	4r	4r
=3	=3	=3	=3
2r	2r	2r	8.dd
.	.	.	32ee-
.	.	.	32dd
.	.	.	4ccc
4A	4c	4e-	4f#
=4	=4	=4	=4
4A	4c	4e-	4f#
4B-	4B-	4d	4g
4r	4r	4r	4r
=5	=5	=5	=5
4.r	4.r	4.r	8.dd
.	.	.	32ee-
.	.	.	32dd
.	.	.	4ddd
8BB-	8g	8g	.
8BB-	8g	8g	16ccc
.	.	.	16bb-
8BB-	8g	8g	16aa
.	.	.	16gg
=6	=6	=6	=6
8C	8g	2ee-	2gg
8C	8g	.	.
8C	8g	.	.
8C	8g	.	.
8C	8g	16dd	16ff
.	.	16cc	16ee-
8C	8g	16b-	16dd
.	.	16a	16cc
=7	=7	=7	=7
8D	8g	2g	2b-
8D	8d	.	.
8D	8d	.	.
8D	8d	.	.
8D	8d	4c	8a
8D	8A	.	16g
.	.	.	16f#
=8	=8	=8	=8
2GG	4A	4c	8.f#
.	.	.	16g
.	4G	4B-	4d
4r	4r	4r	4r
=9	=9	=9	=9
2r	2r	2r	8.d
.	.	.	32e-
.	.	.	32d
.	.	.	4g
4GG	4B-	4B-	4d
=10	=10	=10	=10
4FF#	4A	4c	4e-
4GG	4B-	4B-	4d
4r	4r	4r	4r
=11	=11	=11	=11
8.A-	8.a-	8.A- 8.a-	8.A- 8.a-
16G	16g	16g	16g
8F	8f	8f	8f
8E-	8e-	8e-	8e-
8D	8d	8d	8d
8C	8c	8c	8c
=12	=12	=12	=12
8BB	8B	8B	8B
8BB	8B	8dd 8g	8gg
4BB	4B	4g 4dd	4gg
4r	4r	4r	8r
.	.	.	8dd
=13	=13	=13	=13
4..r	4..r	4..r	4b
.	.	.	4r
16B	16d 16G	16gg 16dd	.
4B	4d 4G	4dd 4gg	4ff
=14	=14	=14	=14
2.r	2.r	2.r	8ee-
.	.	.	8dd
.	.	.	4aa-
.	.	.	8gg
.	.	.	8dd
=15	=15	=15	=15
4.r	4.r	4.r	4ee-
.	.	.	2r
8B	8b	8b	.
8c	8cc	8cc	.
8d	8dd	8dd	.
=16	=16	=16	=16
8e-	8ee-	8ee-	2.r
8d	8dd	8dd	.
8c	8cc	8cc	.
8B-	8b-	8b-	.
8A	8a	8a	.
8G	8g	8g	.
=17	=17	=17	=17
8.F#	8.f#	8.f#	4.r
16F#	16d 16a	16aa	.
4F#	4a 4d	4aa	.
.	.	.	8dd
4r	4r	4r	8dd
.	.	.	8cc#
=18	=18	=18	=18
4.r	4.r	4.r	8ee
.	.	.	8dd
.	.	.	2r
8F#	8A	8d	.
8F#	8A	8d	.
8F#	8A	8d	.
=19	=19	=19	=19
4F#	4A	4d	4.r
2r	2r	2r	.
.	.	.	8dd
.	.	.	8dd
.	.	.	8dd
=20	=20	=20	=20
4.r	4.r	4.r	8ff
.	.	.	8ee-
.	.	.	2r
8F	8A	8e- 8c	.
8F	8A	8e- 8c	.
8F	8A	8e- 8c	.
=21	=21	=21	=21
4F	4A	4e- 4c	4.r
2r	2r	2r	.
.	.	.	8ee-
.	.	.	8.ff
.	.	.	16cc
=22	=22	=22	=22
4.r	4.r	4.r	4dd-
.	.	.	2r
8F	8B-	8d-	.
8F	8B-	8d-	.
8F	8B-	8d-	.
=23	=23	=23	=23
4G-	4B-	4d-	4dd-
8r	8r	8r	8cc
8G-	8d-	8e 8B-	8b-
8G-	8d-	8e 8B-	4r
8G-	8d-	8B- 8e	.
=24	=24	=24	=24
4G-	4d-	4B- 4e	4.r
2r	2r	2r	.
.	.	.	8b-
.	.	.	8b-
.	.	.	8a
=25	=25	=25	=25
4.r	4.r	4.r	8dd-
.	.	.	8cc
.	.	.	2r
8F	8A	8f 8c	.
8F	8A	8f 8c	.
8F	8A	8f 8c	.
=26	=26	=26	=26
4F	4A	4f 4c	2.r
2r	2r	2r	.
=27	=27	=27	=27
8B-	8f	8dd	8.ff
8B-	8f	8dd	.
.	.	.	32gg
.	.	.	32ff
8B-	8f	8dd	8bb-
8B-	8f	8dd	8ddd
8B-	8f	8dd	16ccc
.	.	.	16bb-
8B-	8f	8dd	16aa
.	.	.	16gg
=28	=28	=28	=28
8A	8f	8cc	4ff
8A	8f	8cc	.
8A	8f	8cc	4ee-
8A	8f	8cc	.
8B-	8f	8dd	4dd
8B-	8f	8dd	.
=29	=29	=29	=29
8E-	8e-	8.g	8cc
8E-	8e-	.	16ee-
.	.	16ee-	16gg
8F	8f	8dd	8ff
8F	8f	16cc	16ee-
.	.	16b-	16dd
8F	8.f	8e-	8cc
8F	.	16d	16b-
.	16e-	16c	16a
=30	=30	=30	=30
4BB-	4e-	4c	8.a
.	.	.	16b-
4r	8d	8d	4f
.	8B-	8d	.
4FF	8d	8f	4r
.	8c	8e-	.
=31	=31	=31	=31
8BB-	8B-	8d	8.f
8BB-	8F	8d	.
.	.	.	32g
.	.	.	32f
8BB-	8F	8d	8b-
8BB-	8F	8d	8dd
8BB-	8F	8d	16cc
.	.	.	16b-
8BB-	8F	8d	16a
.	.	.	16g
=32	=32	=32	=32
8AA	8F	8c	4f
8AA	8F	8c	.
8AA	8F	8c	4e-
8AA	8F	8c	.
8BB-	8F	8d	8d
8BB-	8F	8B-	16ff
.	.	.	16dd
=33	=33	=33	=33
8E-	8G	8B-	4cc
8E-	8G	8b-	.
8E-	8G	8b-	4.gg
8E-	8G	8b-	.
8E-	8G	8b-	.
8E	8c	8g	8b-
=34	=34	=34	=34
8F	8c	8f	4a
8F	8c	8f	.
8F	8c	8a	2ff
8F	8c	8a	.
8F	8c	8a	.
8F	8c	8a	.
=35	=35	=35	=35
8G	8B-	8b-	8ff
8G	8B-	8b-	8ee
8G	8B-	8b-	2ee
8G	8B-	8b-	.
8G	8B-	8b-	.
8G	8B-	8b-	.
=36	=36	=36	=36
8A	8A	8cc	2ee-
8A	8A	8cc	.
8A	8A	8cc	.
8A	8A	8cc	.
8B-	8B-	8f	4dd
8B-	8B-	8f	.
=37	=37	=37	=37
8E-	8e-	8g	8cc
8E-	8e-	16g	32ff
.	.	.	32ee-
.	.	16e-	32dd
.	.	.	32cc
8F	8f	8d	4b-
8F	8f	8d	.
8F	8f	8c	8a
8r	8r	8r	8ff
=38	=38	=38	=38
8r	8r	8r	8ff
8G	8B-	8b-	8ee
8G	8B-	8b-	2ee
8G	8B-	8b-	.
8G	8B-	8b-	.
8G	8B-	8b-	.
=39	=39	=39	=39
8A	8A	8f	2ee-
8A	8A	8f	.
8A	8A	8f	.
8A	8A	8f	.
8B-	8B-	8f	4dd
8B-	8B-	8dd	.
=40	=40	=40	=40
8E-	8B-	8dd	2gg
8E-	8B-	8dd	.
8E-	8c	8cc	.
8E-	8c	8cc	.
8E-	8G	8cc	16ff
.	.	.	16ee-
8E-	8G	8cc	16dd
.	.	.	16cc
=41	=41	=41	=41
8E-	8A	8cc	6..ff
8E-	8A	8cc	.
4D	4B-	4b-	.
.	.	.	24bb-
.	.	.	24aa
.	.	.	24bb-
.	.	.	24ddd
.	.	.	24ccc#
8r	8r	8r	24ddd
.	.	.	24aa
.	.	.	24bb-
8D	8d	8b-	24ff
.	.	.	24aa-
.	.	.	24ff
=42	=42	=42	=42
8.E-	8.e-	8.b-	24gg
.	.	.	24bb-
.	.	.	24b
.	.	.	24cc
.	.	.	24ee-
16E	16e	16e	.
.	.	.	24e
8F	8f	8f	4f
8F	8f	4b-	.
8F	8f	.	4cc
8F	8f	8a	.
=43	=43	=43	=43
8BB-	8B-	8b-	4b-
8BB-	8B-	8b-	.
8BB-	8B-	8f	4.a-
8BB-	8B-	8f	.
8BB-	8D	8f	.
8BB-	8D	8d	8f#
=44	=44	=44	=44
8BB-	8E-	2B-	4f#
8BB-	8E-	.	.
8BB-	8E-	.	4g
8BB-	8E-	.	.
8BB-	8E-	8G	8e-
8BB-	8E-	8A	16d
.	.	.	16c
=45	=45	=45	=45
2BB-	4E-	4A	4c
.	4D	4B-	4d
4r	4r	4r	4r
=46	=46	=46	=46
2r	2r	2r	8.dd
.	.	.	32ee-
.	.	.	32dd
.	.	.	4gg
4G	4B-	4B-	4d
=47	=47	=47	=47
4F#	4A	4c	4e-
4G	4B-	4B-	4d
4r	4r	4r	4r
=48	=48	=48	=48
2r	2r	2r	8.dd
.	.	.	32ee-
.	.	.	32dd
.	.	.	4ccc
4A	4c	4e-	4f#
=49	=49	=49	=49
4A	4c	4e-	4f#
4B-	4B-	4d	4g
4r	4r	4r	4r
=50	=50	=50	=50
2r	2r	2r	8.dd
.	.	.	48ff
.	.	.	48ee-
.	.	.	48dd
.	.	.	4aa-
4F	4F	4A-	4B
=51	=51	=51	=51
4F	4F	4A-	4B
8.E-	8.E-	8.G	8.c
16G	16G	16g	16g
8c	8c	8cc	8cc
8B	8B	8b	8b
=52	=52	=52	=52
8e-	8e-	8ee-	8ee-
8d	8d	8dd	8dd
8c	8c	8cc	8cc
8B-	8B-	8b-	8b-
8A	8A	8a	8a
8G	8G	8g	8g
=53	=53	=53	=53
8.F#	8.F#	8.f#	4f#
16F#	16d	16aa	.
4F#	4d	4aa	4.r
4r	4r	4r	.
.	.	.	8dd
=54	=54	=54	=54
2.r	2.r	2.r	8dd
.	.	.	8a
.	.	.	16r
.	.	.	16a
.	.	.	16g
.	.	.	16a
.	.	.	8f#
.	.	.	8f#
=55	=55	=55	=55
2.r	2.r	2.r	8r
.	.	.	8a
.	.	.	8a
.	.	.	8b-
.	.	.	4cc
=56	=56	=56	=56
2.r	2.r	2.r	4.r
.	.	.	8cc
.	.	.	8dd
.	.	.	8a
=57	=57	=57	=57
4.r	4.r	4.r	4b-
.	.	.	2r
8G	8B-	8d	.
8G	8B-	8d	.
8G	8B-	8d	.
=58	=58	=58	=58
4G	4B-	4e-	2gg
2r	2r	2r	.
.	.	.	8.ff
.	.	.	16gg
=59	=59	=59	=59
2.r	2.r	2.r	8ee-
.	.	.	8ee-
.	.	.	4.r
.	.	.	8ee-
=60	=60	=60	=60
2.r	2.r	2.r	8ee-
.	.	.	8b-
.	.	.	8r
.	.	.	8b-
.	.	.	8b-
.	.	.	8cc
=61	=61	=61	=61
2.r	2.r	2.r	8dd-
.	.	.	8dd-
.	.	.	8r
.	.	.	8dd-
.	.	.	8.ee-
.	.	.	16b-
=62	=62	=62	=62
4.r	4.r	4.r	8dd-
.	.	.	8cc
.	.	.	2r
8A-	8c	8e-	.
8A-	8c	8e-	.
8A-	8c	8e-	.
=63	=63	=63	=63
4A-	4c	4e-	2aa-
2r	2r	2r	.
.	.	.	8gg
.	.	.	8ff
=64	=64	=64	=64
4.r	4.r	4.r	8ee
.	.	.	8ee
.	.	.	2r
8G	8d-	8B- 8e	.
8G	8d-	8e 8B-	.
8G	8d-	8e 8B-	.
=65	=65	=65	=65
4G	4d-	4e 4B-	2bb-
2r	2r	2r	.
.	.	.	8.aa-
.	.	.	16ee
=66	=66	=66	=66
4.r	4.r	4.r	4ff
.	.	.	2r
8A-	8c	8f	.
8A-	8c	8f	.
8A-	8c	8f	.
=67	=67	=67	=67
4A-	4c	4f	2ccc
2r	2r	2r	.
.	.	.	8aa-
.	.	.	8gg
=68	=68	=68	=68
2.r	2.r	2.r	8ff#
.	.	.	8ff#
.	.	.	4.r
.	.	.	8gg
=69	=69	=69	=69
2r	2r	2r	8ee-
.	.	.	8dd
.	.	.	4.r
8r	8r	8r	.
8D	8c	8A	8f#
=70	=70	=70	=70
8BB-	8B-	8G	8.g
8BB-	8d	8g	.
.	.	.	32a
.	.	.	32g
8BB-	8d	8g	8gg
8BB-	8d	8g	8ff
8BB-	8B-	8g	8ee-
8BB-	8B-	8g	8dd
=71	=71	=71	=71
8AA	8A	8.g	8dd
8AA	8A	.	8cc#
.	.	32a	.
.	.	32g	.
8AA	8A	8b-	2cc#
8AA	8A	8b-	.
8AA	8A	8a	.
8AA	8A	8g	.
=72	=72	=72	=72
8D	8A	8g	8.cc
8D	8A	8f#	.
.	.	.	32dd
.	.	.	32cc
8D	8A	2f#	8aa
8D	8A	.	8ff#
8D	8A	.	8ee-
8D	8A	.	8cc
=73	=73	=73	=73
8G	8G	8g	4b-
8G	8d	8g	.
8F	8d	8g	2b
8F	8d	8g	.
8F	8d	8g	.
8F	8d	8g	.
=74	=74	=74	=74
8E	8c	8g	4cc
8E	8c	8g	.
8E-	8G	8b-	2cc#
8E-	8G	8cc#	.
8E-	8G	8a	.
8E-	8G	8g	.
=75	=75	=75	=75
8D	8A	8f#	4dd
8D	8A	8f#	.
8C	8A	8f#	4ee-
8C	8A	8f#	.
8C	8e-	8a	4ff#
8C	8e-	8a	.
=76	=76	=76	=76
8BB-	8d	8d	6..gg
8BB-	8d	8d	.
4BB-	4d	4d	.
.	.	.	24bb-
.	.	.	24ff#
.	.	.	24gg
.	.	.	24ccc#
.	.	.	24ddd
8r	8r	8r	24aa
.	.	.	24bb-
.	.	.	24ff#
8BB-	8B-	8g	24gg
.	.	.	24bb-
.	.	.	24dd
=77	=77	=77	=77
8.C	8.c	8.g	24ee-
.	.	.	24gg
.	.	.	24b
.	.	.	24cc
.	.	.	24ee-
16C#	16c#	16c#	.
.	.	.	24c#
8D	8d	8d	4d
8D	8d	8g	.
8D	8d	8f#	4a
8D	8d	8f#	.
=78	=78	=78	=78
8GG	8G	4g	4g
8GG	8G	.	.
8GG	8G	4.e-	4.cc
8GG	8G	.	.
8GG	8G	.	.
8GG	8G	16c	16a
.	.	16A	16f#
=79	=79	=79	=79
8GG	4G	4B-	4g
8GG	.	.	.
8GG	4.F#	4.c	4.e-
8GG	.	.	.
8GG	.	.	.
8GG	8c	16A	16c
.	.	16f#	16A
=80	=80	=80	=80
2GG	4c	4f#	4A
.	4B-	4g	4G
4r	4r	4r	4r
==	==	==	==
*-	*-	*-	*-
!!!RWG1: This file contains only pitch and duration data.
!!!RWG2: Transposing instruments are not transposed.
!!!RWG3: Spines may have incompatible meters.
!!!RWG4: Durations of rests and tied notes may be interpreted.
!!!RWG: Key is interpreted using the Humdrum key tool.
!!!GTL: 6 Divertimentos
!!!OPT: Recitative
!!!AFT: stage1
!!!END: 1997/04/15
!!!KEY: 3117149616
!!!EMD: Converted from MuseData to Humdrum Dec 16, 2000, by Andreas Kornstaedt using muse2kern.
!!!EMD: Manual editing by Craig Sapp, Nov 2001
